X:225
T: Kranzsingen
N: A0271D
O: Europa, Mitteleuropa, Deutschland
N: M. Praetorius Mus. Sion. VI 1609 No. 27.
R: Romanze, Ballade, Lied
M: 4/2
L: 1/4
K: F
F | c2c2d2c2 | A2BGA2z
F | c2c2c2AB | cAG2F2z
C | F2G2A2A2 | F2G2A2z
F | c2c2c2AB | cAG2F2z

